**kern
*staff1
!!pagebreak:original
*I"P1
=1-
*clefG2
*k[f#c#]
*M3/8
8dd\L
8dd\
8dd\J
=2
16dd\LL
16dd\
16dd\
16dd\
16dd\
16dd\JJ
=3
8dd\L
8a\
8ff#\J
=4
ff#q/
[4ee\
16ee\]
16r
=5
8dd\L
8dd\
8dd\J
=6
16dd\LL
16dd\
16dd\
16dd\
16dd\
16dd\JJ
=7
8dd\L
8a\
8aa\J
=8
aaq/
[4gg\
16gg\]
16r
*-
